X: 2051
T: Ask My Father
R: slide
M: 12/8
K: Gmajor
A2G|:F2D D3 A2G F2D|A2A B2G A2A A2G|F2D D3 A2G F2D|
G2B A2F G3 A2G|F2D D3 A2G F2D|A2A B2G A2A A2G|
F2D D3 A2G F2D|1 G2B A2F G3 A2G:|2 G2B A2F G3G2g||
|:f2d d2g f2d cAG|A2A A2G A2A A2g|f2d d2g f2d cAF|
G2B A2F G3G2 g|f2d d2g f2d cAG|A2A A2G A2A A2g|
f2e d2e f2g a2g|1 f2d c2A G3G2g:|2 f2d c2A G2B A2G||

